X: 1
T: the Devil's Churn
C: Joseph Grote 1994
R: reel
Z: 2012 John Chambers <jc:trillian.mit.edu>
B: The Portland Collection v.2 p.52
M: C|
L: 1/8
K: Dm
|:\
"Dm"Ad~d2 dcAd | "C"cAGE CDEG | "Dm"Ad~d2 dcAd | "C"cAGE "Dm"FDD2 |
"Dm"Ad~d2 dcAd | "C"cAGE CDEG | "Dm"Adfd efec | "Am"efec "Dm"d4 :|
|:\
"Dm"Adfd "(C)"efec | "Bb"B2fB gBfB | "C"c2gc acgc | c2gc "A(m)"efe"(#)"c |
"Dm"Adfd "(C)"efec | "Bb"B2fB gBfB | "C"c2gc acgc | "A(m)"efe"(#)"c "Dm"d4 :|
